X: 3383
T: The FOX AND THE GRAPES
%R: reel
B: James Kerr "Merry Melodies" v.3 p.42 #383
Z: 2016 John Chambers <jc:trillian.mit.edu>
M: 2/4
L: 1/16
K: D
[|\
a2ag f2fe | d2de f4 | g2eg f2df | edef efge |\
a2ag f2fe | d2de f4 | g2eg f2df | edef d2a2 |:\
e2f2g2a2 | e2f2g2a2 | e2f2g2b2 | a2^g2a2z2 :|

%%sep 1 1 500
%%sep 1 1 500

